images/prev.svg

<svg fill="none" height="48" viewBox="0 0 48 48" width="48" xmlns="http://www.w3.org/2000/svg" xmlns:xlink="http://www.w3.org/1999/xlink"><mask id="a" height="32" maskUnits="userSpaceOnUse" width="32" x="8" y="8"><path clip-rule="evenodd" d="m25.3749 38.9861c.7594-.7593.7594-1.9905 0-2.7498l-10.2917-10.2917h22.5279c1.0739 0 1.9444-.8706 1.9444-1.9445s-.8705-1.9444-1.9444-1.9444h-22.5279l10.2917-10.2918c.7594-.7593.7594-1.99047 0-2.74982-.7593-.75936-1.9905-.75936-2.7498 0l-13.61115 13.61112c-.36816.3681-.55782.8472-.56899 1.3296-.00073.0313-.0007.0625.00007.0937.00591.2419.05598.4728.14245.685.09492.2334.23707.4521.42647.6415l13.61115 13.6111c.7593.7594 1.9905.7594 2.7498 0z" fill="#fff" fill-rule="evenodd"/></mask><path clip-rule="evenodd" d="m25.3749 38.9861c.7594-.7593.7594-1.9905 0-2.7498l-10.2917-10.2917h22.5279c1.0739 0 1.9444-.8706 1.9444-1.9445s-.8705-1.9444-1.9444-1.9444h-22.5279l10.2917-10.2918c.7594-.7593.7594-1.99047 0-2.74982-.7593-.75936-1.9905-.75936-2.7498 0l-13.61115 13.61112c-.36816.3681-.55782.8472-.56899 1.3296-.00073.0313-.0007.0625.00007.0937.00591.2419.05598.4728.14245.685.09492.2334.23707.4521.42647.6415l13.61115 13.6111c.7593.7594 1.9905.7594 2.7498 0z" fill="#212121" fill-rule="evenodd"/><g mask="url(#a)"><path d="m47.3333 47.3335h46.6667v46.6667h-46.6667z" fill="#464447" transform="matrix(-1 0 0 -1 94.6666 94.667)"/></g></svg>

<svg width="48" height="48" viewBox="0 0 48 48" fill="none" xmlns="http://www.w3.org/2000/svg">
<path fill-rule="evenodd" clip-rule="evenodd" d="M25.3749 38.9861C26.1343 38.2268 26.1343 36.9956 25.3749 36.2363L15.0832 25.9446L37.6111 25.9446C38.685 25.9446 39.5555 25.074 39.5555 24.0001C39.5555 22.9262 38.685 22.0557 37.6111 22.0557L15.0832 22.0557L25.3749 11.7639C26.1343 11.0046 26.1343 9.77343 25.3749 9.01408C24.6156 8.25472 23.3844 8.25472 22.6251 9.01408L9.01395 22.6252C8.64579 22.9933 8.45613 23.4724 8.44496 23.9548C8.44423 23.9861 8.44426 24.0173 8.44503 24.0485C8.45094 24.2904 8.50101 24.5213 8.58748 24.7335C8.6824 24.9669 8.82455 25.1856 9.01395 25.375L22.6251 38.9861C23.3844 39.7455 24.6156 39.7455 25.3749 38.9861Z" fill="#212121"/>
<mask id="mask0_303_1307" style="mask-type:alpha" maskUnits="userSpaceOnUse" x="8" y="8" width="32" height="32">
<path fill-rule="evenodd" clip-rule="evenodd" d="M25.3749 38.9861C26.1343 38.2268 26.1343 36.9956 25.3749 36.2363L15.0832 25.9446L37.6111 25.9446C38.685 25.9446 39.5555 25.074 39.5555 24.0001C39.5555 22.9262 38.685 22.0557 37.6111 22.0557L15.0832 22.0557L25.3749 11.7639C26.1343 11.0046 26.1343 9.77343 25.3749 9.01408C24.6156 8.25472 23.3844 8.25472 22.6251 9.01408L9.01395 22.6252C8.64579 22.9933 8.45613 23.4724 8.44496 23.9548C8.44423 23.9861 8.44426 24.0173 8.44503 24.0485C8.45094 24.2904 8.50101 24.5213 8.58748 24.7335C8.6824 24.9669 8.82455 25.1856 9.01395 25.375L22.6251 38.9861C23.3844 39.7455 24.6156 39.7455 25.3749 38.9861Z" fill="white"/>
</mask>
<g mask="url(#mask0_303_1307)">
<rect x="47.3333" y="47.3335" width="46.6667" height="46.6667" transform="rotate(-180 47.3333 47.3335)" fill="#464447"/>
</g>
</svg>
